X: 27
T:The Sheaphards dance
M:4/4
L:1/4
S:Wright 1713
Z:p
K:A
Ac2B/A/|e2f/g/a|ecfB|G2E2|FDFB|GBea/g/|f/e/d/c/ B/c/B/G/|A2c2:||
ec/d/ec/d/|ecAd/c/|Bd/c/Bd/B/|Ac2e/f/|ef/g/fg/a/|gf/e/a>e|f/e/d/c/ B/c/B
